dist/images/icons/handshake_white.svg

<svg width="16" height="11" viewBox="0 0 16 11" fill="none" xmlns="http://www.w3.org/2000/svg">
<path fill-rule="evenodd" clip-rule="evenodd" d="M7.42511 0.0399659C7.65427 -0.0268409 7.89977 -0.00947454 8.11724 0.088927L10.2778 1.06653C10.5294 1.18037 10.641 1.4766 10.5272 1.72819C10.4134 1.97977 10.1171 2.09144 9.86553 1.9776L7.70499 1L4.49749 1.9351C4.23239 2.01238 3.95482 1.86013 3.87753 1.59502C3.80025 1.32991 3.9525 1.05235 4.21761 0.975061L7.42511 0.0399661L7.56505 0.519983L7.42511 0.0399659Z" fill="white"/>
<path fill-rule="evenodd" clip-rule="evenodd" d="M8.39623 1.09956C8.51755 1.0493 8.64759 1.02344 8.77891 1.02344H11.3218C11.5979 1.02344 11.8218 1.2473 11.8218 1.52344C11.8218 1.79958 11.5979 2.02344 11.3218 2.02344L8.77891 2.02344L6.33301 4.46934L6.03838 4.17471L6.33301 4.46934L6.6718 4.72344C6.93145 4.91817 7.24725 5.02344 7.5718 5.02344C7.89636 5.02344 8.21216 4.91817 8.4718 4.72344L9.2718 4.12344C9.44741 3.99174 9.68837 3.98996 9.86589 4.11907L12.6159 6.11907C12.8392 6.28149 12.8886 6.5942 12.7262 6.81752C12.5638 7.04085 12.251 7.09022 12.0277 6.92781L9.57637 5.14501L9.0718 5.52344C8.63906 5.84799 8.11273 6.02344 7.5718 6.02344C7.03088 6.02344 6.50454 5.84799 6.0718 5.52344L5.73301 5.26934C5.61839 5.18338 5.52358 5.07379 5.455 4.94799C5.38643 4.8222 5.34568 4.68314 5.33552 4.54023C5.32537 4.39732 5.34604 4.25389 5.39614 4.11966C5.44624 3.98544 5.52459 3.86354 5.6259 3.76223L8.0718 1.31633C8.16466 1.22347 8.2749 1.14981 8.39623 1.09956Z" fill="white"/>
<path fill-rule="evenodd" clip-rule="evenodd" d="M1.92743 4.97718C2.09754 4.75965 2.41177 4.7212 2.62931 4.8913L6.04563 7.56273L9.66794 8.46831L11.9539 6.1823L12.9412 5.02729C13.1207 4.81738 13.4363 4.79267 13.6462 4.9721C13.8561 5.15152 13.8808 5.46714 13.7014 5.67705L12.7014 6.84692C12.6929 6.85682 12.6841 6.86638 12.6749 6.87559L10.375 9.17541C10.2529 9.29752 10.1013 9.38593 9.93487 9.43202C9.76845 9.47812 9.59293 9.48033 9.4254 9.43845L5.8031 8.53287C5.66721 8.4989 5.53998 8.43676 5.42964 8.35048L2.01332 5.67905C1.79578 5.50895 1.75733 5.19471 1.92743 4.97718Z" fill="white"/>
<path fill-rule="evenodd" clip-rule="evenodd" d="M2.98427 0.228619L2.76178 0.673609L2.98427 0.22862L4.54485 1.00891C4.66482 1.0689 4.75566 1.17457 4.79696 1.30219C4.83826 1.4298 4.82655 1.56866 4.76446 1.68756L2.76446 5.51769C2.63823 5.75943 2.34156 5.85543 2.09764 5.73346L0.552787 4.96104L0.776393 4.51383L0.552787 4.96104C0.434007 4.90165 0.328244 4.8192 0.241673 4.71849C0.155103 4.61778 0.0894595 4.50084 0.0485734 4.37449C0.00768708 4.24814 -0.00762279 4.11491 0.0035374 3.98258C0.0146976 3.85025 0.0521041 3.72146 0.113574 3.60374L1.65063 0.660183C1.65063 0.660182 1.65063 0.660181 1.65063 0.66018C1.77198 0.427785 1.97974 0.25234 2.22918 0.171623C2.47862 0.0909051 2.74978 0.111373 2.98427 0.228619ZM3.64249 1.67576L2.53706 1.12305L2.76067 0.675834L2.53706 1.12305L1 4.06661L2.10543 4.61933L3.64249 1.67576Z" fill="white"/>
<path fill-rule="evenodd" clip-rule="evenodd" d="M12.6583 0.295027C12.8928 0.177781 13.1639 0.157311 13.4134 0.238027C13.6628 0.318744 13.8706 0.494189 13.9919 0.726584L15.529 3.67015L15.0857 3.90158L15.529 3.67015C15.5904 3.78787 15.6278 3.91665 15.639 4.04898M12 1.74217L13.5371 4.68573L14.6425 4.13302M12 1.74217L13.1055 1.18945L14.6425 4.13302M12.6583 0.295027L11.0977 1.07532ZM11.0977 1.07532C10.9777 1.1353 10.8869 1.24098 10.8456 1.36859ZM10.8456 1.36859C10.8043 1.49621 10.816 1.63507 10.8781 1.75397ZM10.8781 1.75397L12.8781 5.58409ZM15.639 4.04898C15.6502 4.18131 15.6349 4.31454 15.594 4.44089C15.5531 4.56724 15.4874 4.68419 15.4009 4.78489C15.3143 4.8856 15.2085 4.96805 15.0897 5.02744L13.5449 5.79987C13.301 5.92183 13.0043 5.82583 12.8781 5.58409" fill="white"/>
<path opacity="0.2" d="M12.3213 6.52206L10.0215 8.82189C9.96041 8.88294 9.88459 8.92714 9.80138 8.95019C9.71817 8.97324 9.63041 8.97434 9.54665 8.9534L5.92434 8.04783C5.8564 8.03084 5.79278 7.99977 5.73761 7.95663L2.32129 5.2852L4.35719 1.45508L7.56469 0.519983C7.67927 0.48658 7.80201 0.495263 7.91075 0.544464L10.0713 1.52206H8.7784C8.71273 1.52206 8.64772 1.535 8.58705 1.56012C8.52639 1.58525 8.47127 1.62208 8.42484 1.66851L5.97894 4.11441C5.92829 4.16507 5.88911 4.22601 5.86406 4.29313C5.83901 4.36024 5.82867 4.43195 5.83375 4.50341C5.83883 4.57487 5.8592 4.6444 5.89349 4.70729C5.92778 4.77019 5.97518 4.82499 6.03249 4.86797L6.37129 5.12206C6.71748 5.38171 7.13855 5.52206 7.57129 5.52206C8.00403 5.52206 8.4251 5.38171 8.77129 5.12206L9.57129 4.52206L12.3213 6.52206Z" fill="white"/>
</svg>

<svg width="16" height="11" fill="none" xmlns="http://www.w3.org/2000/svg"><path fill-rule="evenodd" clip-rule="evenodd" d="M7.425.04a1 1 0 01.692.049l2.16.978a.5.5 0 01-.411.91L7.705 1l-3.208.935a.5.5 0 01-.28-.96L7.426.04l.14.48-.14-.48z" fill="#fff"/><path fill-rule="evenodd" clip-rule="evenodd" d="M8.396 1.1a1 1 0 01.383-.077h2.543a.5.5 0 010 1H8.779L6.333 4.47l-.295-.294.295.294.339.254a1.5 1.5 0 001.8 0l.8-.6a.5.5 0 01.594-.004l2.75 2a.5.5 0 01-.588.809L9.576 5.145l-.504.378a2.5 2.5 0 01-3 0l-.339-.254a1 1 0 01-.107-1.507l2.446-2.446a1 1 0 01.324-.216z" fill="#fff"/><path fill-rule="evenodd" clip-rule="evenodd" d="M1.927 4.977a.5.5 0 01.702-.086l3.417 2.672 3.622.905 2.286-2.286.987-1.155a.5.5 0 01.76.65l-1 1.17a.517.517 0 01-.026.029l-2.3 2.3a1 1 0 01-.95.262l-3.622-.905a1 1 0 01-.373-.183L2.013 5.68a.5.5 0 01-.086-.703z" fill="#fff"/><path fill-rule="evenodd" clip-rule="evenodd" d="M2.984.229l-.222.445.222-.445 1.56.78a.5.5 0 01.22.679l-2 3.83a.5.5 0 01-.666.215L.553 4.961l.223-.447-.223.447a1 1 0 01-.44-1.357L1.652.66A1 1 0 012.984.23zm.658 1.447l-1.105-.553.224-.447-.224.447L1 4.067l1.105.552 1.537-2.943zM12.658.295a1 1 0 011.334.432l1.537 2.943-.443.232.443-.232c.061.118.099.247.11.379M12 1.742l1.537 2.944 1.105-.553M12 1.743l1.105-.554 1.537 2.944M12.659.295l-1.56.78zm-1.56.78a.5.5 0 00-.252.294zm-.252.294a.5.5 0 00.032.385zm.032.385l2 3.83zm4.761 2.295a.999.999 0 01-.55.978l-1.544.773a.5.5 0 01-.667-.216" fill="#fff"/><path opacity=".2" d="M12.321 6.522l-2.3 2.3a.5.5 0 01-.474.131l-3.623-.905a.5.5 0 01-.186-.091L2.32 5.285l2.036-3.83L7.565.52a.5.5 0 01.346.024l2.16.978H8.778a.5.5 0 00-.353.147L5.979 4.114a.5.5 0 00.053.754l.34.254a2 2 0 002.4 0l.8-.6 2.75 2z" fill="#fff"/></svg>
